icons/mobile/24/svg/settings-24.svg

<svg width="24" height="24" viewBox="0 0 24 24" fill="none" xmlns="http://www.w3.org/2000/svg">
<path fill-rule="evenodd" clip-rule="evenodd" d="M12.5002 8.49963C14.433 8.49976 16 10.0668 16.0002 11.9996C16.0002 13.9325 14.4331 15.4995 12.5002 15.4996C10.5672 15.4996 9.00017 13.9326 9.00017 11.9996C9.00031 10.0667 10.5673 8.49963 12.5002 8.49963ZM12.5002 10.2496C11.5353 10.2496 10.7503 11.0347 10.7502 11.9996C10.7502 12.9646 11.5352 13.7496 12.5002 13.7496C13.4651 13.7495 14.2502 12.9645 14.2502 11.9996C14.25 11.0348 13.465 10.2498 12.5002 10.2496Z" fill="black"/>
<path fill-rule="evenodd" clip-rule="evenodd" d="M10.7394 2.41564C11.7786 1.89625 12.9899 1.86357 14.051 2.31799L14.2609 2.41467L14.2629 2.41662C14.8171 2.6954 15.226 3.20195 15.3771 3.80627L15.7414 5.26623C16.0783 5.43274 16.3938 5.62407 16.6906 5.83068L18.1564 5.41174L18.384 5.35998C18.916 5.26926 19.4645 5.38373 19.9181 5.68225C20.9534 6.36522 21.6053 7.49581 21.6799 8.73303C21.7169 9.35385 21.4816 9.96106 21.0334 10.3942L19.9455 11.4469C19.9659 11.6194 19.9826 11.8094 19.9826 11.9996C19.9826 12.1902 19.9657 12.3792 19.9455 12.5514L21.0334 13.6031C21.4257 13.9821 21.6555 14.4947 21.6818 15.0328L21.6799 15.2653C21.61 16.4241 21.0337 17.4915 20.1086 18.1832L19.9191 18.316C19.3985 18.6601 18.7544 18.7585 18.1564 18.5875L16.6896 18.1676C16.3931 18.374 16.0779 18.5647 15.7414 18.7311L15.3771 20.192C15.2264 20.796 14.8189 21.3039 14.2599 21.5826L14.2609 21.5836C13.2219 22.103 12.0104 22.1354 10.9494 21.6813L10.7385 21.5836C10.1824 21.3056 9.77426 20.7972 9.62322 20.193L9.25799 18.733C8.92133 18.5666 8.60636 18.375 8.30974 18.1686L6.84392 18.5885C6.24371 18.7597 5.60076 18.6591 5.0822 18.318L5.08123 18.317C4.04579 17.634 3.39404 16.5036 3.31951 15.2662C3.28228 14.6451 3.51748 14.0373 3.96599 13.6041L5.05388 12.5514C5.03357 12.3792 5.01678 12.1894 5.01678 11.9996C5.01679 11.8084 5.03254 11.6186 5.05291 11.4459L3.96599 10.3951C3.51761 9.96202 3.28242 9.35496 3.31951 8.734C3.38944 7.57514 3.96663 6.5077 4.89178 5.81604L5.08123 5.68225C5.60178 5.33847 6.24607 5.24068 6.84392 5.41174L8.30877 5.83068C8.60568 5.62399 8.92095 5.43182 9.25799 5.26525L9.62322 3.80725C9.77386 3.20306 10.1803 2.69439 10.7394 2.41564ZM13.4787 3.9801C12.862 3.67225 12.1369 3.67268 11.5217 3.9801L11.5207 3.98107C11.422 4.03027 11.3479 4.12046 11.3205 4.2301L10.8537 6.10021C10.7861 6.37042 10.5939 6.59243 10.3361 6.69787C9.87141 6.88794 9.43624 7.15628 9.01482 7.48205C8.79472 7.65216 8.5069 7.70788 8.23943 7.63146L6.36248 7.09436C6.28167 7.07124 6.19623 7.07553 6.11931 7.1051L6.0451 7.14318C5.50652 7.49844 5.15335 8.07325 5.07732 8.71057L5.06658 8.8385C5.05989 8.95124 5.10243 9.05963 5.18181 9.13635L6.58806 10.4967C6.78797 10.6901 6.88402 10.9672 6.84685 11.2428C6.80225 11.5734 6.7668 11.7767 6.76678 11.9996C6.76678 12.2235 6.80347 12.4221 6.84783 12.7594C6.88395 13.0341 6.7872 13.3099 6.58806 13.5026L5.18181 14.8629C5.10233 14.9397 5.05981 15.0489 5.06658 15.1617C5.10819 15.8501 5.47068 16.4772 6.0451 16.8561C6.14031 16.9186 6.25502 16.9364 6.36248 16.9059L8.23943 16.3688L8.34002 16.3463C8.5774 16.3078 8.82211 16.3684 9.01482 16.5172C9.3836 16.8023 9.7629 17.044 10.1633 17.2272L10.3361 17.3024L10.4299 17.3473C10.6402 17.4642 10.7946 17.6636 10.8537 17.9L11.3205 19.7682C11.3474 19.876 11.4218 19.9682 11.5217 20.0182C12.1387 20.3263 12.8632 20.3259 13.4787 20.0182C13.5775 19.9689 13.6515 19.878 13.6789 19.7682L14.1457 17.899L14.1769 17.7994C14.2625 17.5747 14.4379 17.3937 14.6633 17.3014C15.128 17.1113 15.5631 16.842 15.9845 16.5162C16.2047 16.3461 16.4934 16.2912 16.7609 16.3678L18.6379 16.9049C18.7455 16.9356 18.8611 16.9177 18.9543 16.8561L18.9553 16.8551C19.5295 16.4762 19.8923 15.8475 19.9338 15.1598C19.9403 15.0472 19.8969 14.9385 19.8176 14.8619L18.4113 13.5026C18.2115 13.3092 18.1153 13.032 18.1525 12.7565C18.1971 12.426 18.2326 12.2226 18.2326 11.9996C18.2326 11.7757 18.1969 11.5773 18.1525 11.2399C18.1164 10.9652 18.2122 10.6893 18.4113 10.4967L19.8176 9.13732C19.897 9.06062 19.9404 8.95126 19.9338 8.8385C19.8923 8.15038 19.5301 7.52323 18.9562 7.14416L18.881 7.1051C18.8032 7.07517 18.7176 7.07041 18.6369 7.09338L18.6379 7.09436L16.7609 7.63146C16.4933 7.70802 16.2047 7.65227 15.9845 7.48205C15.5632 7.15633 15.1279 6.88792 14.6633 6.69787C14.4056 6.59237 14.2132 6.37036 14.1457 6.10021L13.6789 4.23107C13.6521 4.12419 13.5795 4.03145 13.4787 3.9801Z" fill="black"/>
</svg>

<!-- This Source Code Form is subject to the terms of the Mozilla Public
   - License, v. 2.0. If a copy of the MPL was not distributed with this
   - file, You can obtain one at http://mozilla.org/MPL/2.0/. -->
<svg xmlns="http://www.w3.org/2000/svg" width="24" height="24" fill="none" viewBox="0 0 24 24">
    <path fill="#000" fill-rule="evenodd" d="M12.5 8.5a3.5 3.5 0 1 1 0 7 3.5 3.5 0 0 1 0-7m0 1.75c-.965 0-1.75.785-1.75 1.75s.785 1.75 1.75 1.75 1.75-.786 1.75-1.75c0-.965-.785-1.75-1.75-1.75" clip-rule="evenodd" />
    <path fill="#000" fill-rule="evenodd" d="M10.74 2.416a3.94 3.94 0 0 1 3.311-.098l.21.097.002.002c.554.278.963.785 1.114 1.39l.364 1.46c.337.166.653.357.95.564l1.465-.42.228-.051c.532-.09 1.08.024 1.534.322a3.94 3.94 0 0 1 1.762 3.051 2.13 2.13 0 0 1-.647 1.661l-1.088 1.053c.02.172.038.362.038.553 0 .19-.017.38-.038.551l1.088 1.052c.393.38.622.892.649 1.43l-.002.232a3.94 3.94 0 0 1-1.571 2.918l-.19.133a2.13 2.13 0 0 1-1.763.271l-1.466-.42a7.4 7.4 0 0 1-.949.564l-.364 1.461a2.13 2.13 0 0 1-1.117 1.39v.002a3.94 3.94 0 0 1-3.31.097l-.211-.097a2.13 2.13 0 0 1-1.116-1.391l-.365-1.46a7.4 7.4 0 0 1-.948-.564l-1.466.42c-.6.17-1.243.07-1.762-.271v-.001a3.94 3.94 0 0 1-1.762-3.05 2.13 2.13 0 0 1 .646-1.663l1.088-1.053A5 5 0 0 1 5.017 12c0-.192.016-.381.036-.554l-1.087-1.05a2.13 2.13 0 0 1-.646-1.662 3.94 3.94 0 0 1 1.572-2.918l.19-.134a2.13 2.13 0 0 1 1.762-.27l1.465.419c.297-.207.612-.4.949-.566l.365-1.458a2.13 2.13 0 0 1 1.116-1.391m2.739 1.564a2.19 2.19 0 0 0-1.957 0l-.001.001a.38.38 0 0 0-.2.25l-.467 1.87a.88.88 0 0 1-.518.597c-.465.19-.9.458-1.321.784a.88.88 0 0 1-.776.15l-1.877-.538a.4.4 0 0 0-.243.011l-.074.038a2.19 2.19 0 0 0-.968 1.568l-.01.127a.38.38 0 0 0 .115.298l1.406 1.36c.2.194.296.471.259.747-.045.33-.08.534-.08.757s.036.422.08.76a.88.88 0 0 1-.259.743l-1.406 1.36a.38.38 0 0 0-.115.299c.041.688.404 1.315.978 1.694.095.063.21.08.317.05l1.877-.537.101-.023a.88.88 0 0 1 .675.171 6 6 0 0 0 1.148.71l.173.075.094.045c.21.117.365.317.424.553l.466 1.868c.027.108.102.2.202.25a2.19 2.19 0 0 0 1.957 0 .38.38 0 0 0 .2-.25l.467-1.869.03-.1a.88.88 0 0 1 .487-.498c.465-.19.9-.459 1.322-.785a.88.88 0 0 1 .776-.148l1.877.537c.107.03.223.013.316-.049h.001a2.19 2.19 0 0 0 .979-1.696.38.38 0 0 0-.116-.298l-1.407-1.36a.88.88 0 0 1-.259-.745c.045-.331.08-.534.08-.757 0-.224-.035-.423-.08-.76a.88.88 0 0 1 .26-.743l1.406-1.36a.4.4 0 0 0 .116-.299 2.19 2.19 0 0 0-.978-1.694l-.075-.039a.4.4 0 0 0-.244-.012v.001l-1.876.537a.88.88 0 0 1-.776-.149 5.7 5.7 0 0 0-1.322-.784.88.88 0 0 1-.517-.598l-.467-1.869a.4.4 0 0 0-.2-.25" clip-rule="evenodd" />
</svg>
